src/images/favicon.svg

<svg width="40" height="40" viewBox="0 0 40 40" fill="none" xmlns="http://www.w3.org/2000/svg">
<g id="favicon">
<rect width="40" height="40" rx="8" fill="white"/>
<path id="Vector" d="M12.8693 20.6251H11.0795V14.7224H8.69318V12.3614H15.8523V14.7224H13.4659V18.0221L25.1746 14.9184L24.4826 12.3614H20.625V10.0003H25.3715C25.6386 9.99446 25.9 10.0775 26.1137 10.2361C26.3275 10.3947 26.4812 10.6197 26.5503 10.8751L28.4034 17.7175L26.0981 18.3278L25.7927 17.1992L12.8693 20.6251ZM12.2727 28.8889C12.9056 28.8889 13.5126 28.6402 13.9601 28.1974C14.4077 27.7546 14.6591 27.154 14.6591 26.5278C14.6591 25.9016 14.4077 25.3011 13.9601 24.8583C13.5126 24.4155 12.9056 24.1668 12.2727 24.1668C11.6398 24.1668 11.0328 24.4155 10.5853 24.8583C10.1378 25.3011 9.88636 25.9016 9.88636 26.5278C9.88636 27.154 10.1378 27.7546 10.5853 28.1974C11.0328 28.6402 11.6398 28.8889 12.2727 28.8889ZM12.2727 31.25C11.0069 31.25 9.79296 30.7525 8.8979 29.8669C8.00284 28.9813 7.5 27.7802 7.5 26.5278C7.5 25.2754 8.00284 24.0743 8.8979 23.1888C9.79296 22.3032 11.0069 21.8057 12.2727 21.8057C13.5385 21.8057 14.7525 22.3032 15.6476 23.1888C16.5426 24.0743 17.0455 25.2754 17.0455 26.5278C17.0455 27.7802 16.5426 28.9813 15.6476 29.8669C14.7525 30.7525 13.5385 31.25 12.2727 31.25ZM27.7841 28.8889C28.7334 28.8889 29.6439 28.5158 30.3152 27.8516C30.9865 27.1874 31.3636 26.2866 31.3636 25.3473C31.3636 24.408 30.9865 23.5072 30.3152 22.843C29.6439 22.1788 28.7334 21.8057 27.7841 21.8057C26.8347 21.8057 25.9243 22.1788 25.253 22.843C24.5817 23.5072 24.2045 24.408 24.2045 25.3473C24.2045 26.2866 24.5817 27.1874 25.253 27.8516C25.9243 28.5158 26.8347 28.8889 27.7841 28.8889ZM27.7841 31.25C26.2018 31.25 24.6844 30.6281 23.5656 29.5211C22.4467 28.4142 21.8182 26.9128 21.8182 25.3473C21.8182 23.7818 22.4467 22.2804 23.5656 21.1735C24.6844 20.0665 26.2018 19.4446 27.7841 19.4446C29.3664 19.4446 30.8838 20.0665 32.0026 21.1735C33.1215 22.2804 33.75 23.7818 33.75 25.3473C33.75 26.9128 33.1215 28.4142 32.0026 29.5211C30.8838 30.6281 29.3664 31.25 27.7841 31.25Z" fill="#1D1D1D"/>
</g>
</svg>

<svg xmlns="http://www.w3.org/2000/svg" width="40" height="40" fill="none"><rect width="40" height="40" fill="#fff" rx="8"/><path fill="#1D1D1D" d="M12.87 20.625h-1.79v-5.903H8.692v-2.36h7.16v2.36h-2.387v3.3l11.709-3.104-.692-2.557h-3.858v-2.36h4.747c.267-.007.528.077.742.235.213.159.367.384.436.64l1.853 6.842-2.305.61-.305-1.129-12.924 3.426Zm-.597 8.264a2.4 2.4 0 0 0 1.687-.692 2.348 2.348 0 0 0 .7-1.67c0-.625-.252-1.226-.7-1.669a2.4 2.4 0 0 0-1.687-.691 2.4 2.4 0 0 0-1.688.691 2.349 2.349 0 0 0-.699 1.67c0 .626.252 1.227.7 1.67a2.4 2.4 0 0 0 1.687.69Zm0 2.361a4.799 4.799 0 0 1-3.375-1.383 4.697 4.697 0 0 1-1.398-3.34c0-1.252.503-2.453 1.398-3.338a4.799 4.799 0 0 1 3.375-1.383c1.266 0 2.48.497 3.375 1.383a4.697 4.697 0 0 1 1.398 3.339 4.697 4.697 0 0 1-1.398 3.339 4.799 4.799 0 0 1-3.375 1.383Zm15.511-2.361c.95 0 1.86-.373 2.531-1.037a3.523 3.523 0 0 0 1.049-2.505c0-.939-.378-1.84-1.049-2.504a3.599 3.599 0 0 0-2.53-1.037c-.95 0-1.86.373-2.532 1.037a3.523 3.523 0 0 0-1.049 2.504c0 .94.378 1.84 1.049 2.505a3.599 3.599 0 0 0 2.531 1.037Zm0 2.361c-1.582 0-3.1-.622-4.218-1.729a5.87 5.87 0 0 1-1.748-4.174 5.87 5.87 0 0 1 1.748-4.174 5.998 5.998 0 0 1 4.218-1.728c1.582 0 3.1.622 4.219 1.729a5.87 5.87 0 0 1 1.747 4.173 5.87 5.87 0 0 1-1.747 4.174 5.998 5.998 0 0 1-4.219 1.729Z"/></svg>
